Catalina-dark/actions/22/format-text-strikethrough.svg

<svg xmlns="http://www.w3.org/2000/svg" viewBox="0 0 22 22">
  <defs id="defs3051">
    <style type="text/css" id="current-color-scheme">
      .ColorScheme-Text {
        color:#f2f2f2;
      }
      </style>
  </defs>
 <path 
    style="fill:currentColor;fill-opacity:1;stroke:none" 
    d="M 11.367188 3 C 8.1558629 2.9704971 4.2894531 5.1569693 6.4394531 10.082031 L 14 10.082031 C 1.999998 7.0820318 12.000924 0.08203135 14.041016 8.0820312 L 15 8.0820312 L 15 5.3339844 C 14.984965 3.8339844 13.29398 3.0177018 11.367188 3 z M 3 11 L 3 12 L 19 12 L 19 11 L 3 11 z M 12 12.998047 C 17.286623 18.241347 9.3666873 19.922747 7 13.998047 L 6 13.998047 L 6 16.998047 C 6.1910979 19.513847 18 20.998047 16 12.998047 L 12 12.998047 z "
    class="ColorScheme-Text"
    />  
</svg>

<svg viewBox="0 0 22 22" xmlns="http://www.w3.org/2000/svg">
<defs>
<style id="current-color-scheme" type="text/css">.ColorScheme-Text {
        color:#dedede;
      }</style>
</defs>
<path class="ColorScheme-Text" d="m11.367 3c-3.2113-0.029503-7.0777 2.157-4.9277 7.082h7.5605c-12-3-1.9991-10 0.041016-2h0.95898v-2.748c-0.015035-1.5-1.706-2.3163-3.6328-2.334zm-8.3672 8v1h16v-1h-16zm9 1.998c5.2866 5.2433-2.6333 6.9247-5 1h-1v3c0.1911 2.5158 12 4 10-4h-4z" fill="currentColor"/>
</svg>
